images/a11y-icon.svg

<?xml version="1.0" encoding="UTF-8"?>
<svg width="32px" height="32px" viewBox="0 0 32 32" version="1.1" xmlns="http://www.w3.org/2000/svg" xmlns:xlink="http://www.w3.org/1999/xlink">
	<style>
		path {
			fill: #000000;
		}
		@media (prefers-color-scheme: dark) {
			path {
				fill: #ffffff;
			}
		}
	</style>
	<g id="32x32" stroke="none" stroke-width="1" fill="none" fill-rule="evenodd">
		<path id="logo" d="M16,0 C7.16335686,0 0,7.16335686 0,16 C0,24.8366431 7.16335686,32 16,32 C24.8366431,32 32,24.8366431 32,16 C32,7.16335686 24.8366431,0 16,0 Z M15.7586824,3.17743686 C16.9056,3.17743686 17.8331608,4.10497255 17.8331608,5.24245961 C17.8331608,6.38933333 16.9056,7.31689412 15.7586824,7.31689412 C14.6212392,7.31689412 13.6936705,6.38933333 13.6936705,5.24245961 C13.6905412,4.10497255 14.618102,3.17743686 15.7586824,3.17743686 Z M24.7238275,9.86133333 L18.5695373,10.6384941 L18.5726745,16.7990588 L21.5558275,26.7543843 C21.712502,27.3842824 21.3364706,28.0109804 20.7129098,28.1676549 C20.0924235,28.3243294 19.4563137,27.9796078 19.2996392,27.3529098 L16.2443922,18.2906353 L15.3043451,18.2906353 L12.4935529,27.5409569 C12.2585098,28.1456941 11.5848157,28.4214588 10.9831529,28.1864784 C10.3846275,27.9545725 10.0211451,27.2746039 10.2561882,26.6698039 L12.8382118,16.8993255 L12.8382118,10.6384941 L7.16649412,9.86760784 C6.5836549,9.82061176 6.1888,9.30980392 6.23580235,8.72696471 C6.2796549,8.14098824 6.80922353,7.70547451 7.38892549,7.75247059 L14.2796549,8.34472157 L17.3004549,8.34472157 L24.6361098,7.73992157 C25.218949,7.71796078 25.7140706,8.16922353 25.7328941,8.75833725 C25.7579294,9.33803922 25.3067294,9.83629804 24.7238275,9.86133333 Z" fill-rule="nonzero"></path>
	</g>
</svg>

<svg width="32" height="32" xmlns="http://www.w3.org/2000/svg"><style>path{fill:#000}@media (prefers-color-scheme:dark){path{fill:#fff}}</style><g id="32x32" fill="none" fill-rule="evenodd"><path id="logo" d="M16 0C7.163 0 0 7.163 0 16s7.163 16 16 16 16-7.163 16-16S24.837 0 16 0zm-.241 3.177a2.07 2.07 0 0 1 2.074 2.065 2.07 2.07 0 1 1-2.074-2.065zm8.965 6.684l-6.154.777.003 6.161 2.983 9.955a1.16 1.16 0 0 1-.843 1.414c-.62.156-1.257-.188-1.413-.815l-3.056-9.062h-.94l-2.81 9.25c-.235.605-.91.88-1.51.645-.6-.231-.963-.911-.728-1.516l2.582-9.77v-6.262l-5.672-.77c-.582-.047-.977-.558-.93-1.141a1.072 1.072 0 0 1 1.153-.975l6.89.593H17.3l7.336-.605a1.054 1.054 0 0 1 1.097 1.018 1.06 1.06 0 0 1-1.01 1.103z" fill-rule="nonzero"/></g></svg>
